assets/Ice skate/Flat/ice_skate_flat.svg

<svg width="32" height="32" viewBox="0 0 32 32" fill="none" xmlns="http://www.w3.org/2000/svg">
<path d="M21.22 15.9L15.58 13.58C14.68 13.1 14.14 12.67 14.14 11.82V5.70999C14.14 5.31999 13.82 5 13.43 5H5.22C4.83 5 4.51 5.31999 4.51 5.70999V17.52L5 18L11 20.5H25.3808L25.75 20.26V20.27H25.76C25.7234 17.8164 23.9937 17.0811 21.8294 16.161C21.6296 16.0761 21.4262 15.9896 21.22 15.9ZM27.22 25.37V24.68C27.22 23.91 27.85 23.29 28.6 23.29C29.37 23.29 30 23.92 30 24.69V25.38C30 27.96 27.91 30.05 25.33 30.05H3.4C2.63 30.05 2 29.42 2 28.65C2 27.88 2.63 27.25 3.4 27.25H4.54C5.15 27.25 5.65 26.75 5.65 26.14V24.49H8.44V26.14C8.44 26.75 8.94 27.25 9.55 27.25H19.42C20.03 27.25 20.53 26.75 20.53 26.14V24.49H23.32V26.14C23.32 26.75 23.82 27.25 24.43 27.25H25.34C26.38 27.25 27.22 26.41 27.22 25.37Z" fill="#BEBEBE"/>
<path d="M25.7498 22.56V20.26L10.8398 20.16C10.6298 20.16 10.4498 20.04 10.3598 19.85L9.84977 18.76C9.49977 18.01 8.73977 17.52 7.90977 17.52H4.50977V22.55V24.06C4.50977 24.35 4.74977 24.59 5.03977 24.59H9.78977C10.0798 24.59 10.3198 24.35 10.3198 24.06V23.07C10.3198 22.78 10.5498 22.55 10.8398 22.55H13.9998C14.2898 22.55 14.5198 22.78 14.5198 23.07V24.06C14.5198 24.35 14.7598 24.59 15.0498 24.59H25.2398C25.5298 24.59 25.7698 24.35 25.7698 24.06L25.7498 22.56Z" fill="#635994"/>
<path d="M10.5398 6.99927C10.2633 6.99927 10.0391 7.22346 10.0391 7.50002C10.0391 7.77657 10.2633 8.00077 10.5398 8.00077H14.3098C14.5864 8.00077 14.8106 7.77657 14.8106 7.50002C14.8106 7.22346 14.5864 6.99927 14.3098 6.99927H10.5398ZM10.5398 9.99927C10.2633 9.99927 10.0391 10.2235 10.0391 10.5C10.0391 10.7766 10.2633 11.0008 10.5398 11.0008H14.3098C14.5864 11.0008 14.8106 10.7766 14.8106 10.5C14.8106 10.2235 14.5864 9.99927 14.3098 9.99927H10.5398Z" fill="#636363"/>
</svg>

<svg xmlns="http://www.w3.org/2000/svg" width="32" height="32" fill="none"><path fill="#BEBEBE" d="m21.22 15.9-5.64-2.32c-.9-.48-1.44-.91-1.44-1.76V5.71c0-.39-.32-.71-.71-.71H5.22c-.39 0-.71.32-.71.71v11.81L5 18l6 2.5h14.38l.37-.24v.01h.01c-.037-2.454-1.766-3.189-3.93-4.109-.2-.085-.404-.171-.61-.261Zm6 9.47v-.69c0-.77.63-1.39 1.38-1.39.77 0 1.4.63 1.4 1.4v.69c0 2.58-2.09 4.67-4.67 4.67H3.4c-.77 0-1.4-.63-1.4-1.4 0-.77.63-1.4 1.4-1.4h1.14c.61 0 1.11-.5 1.11-1.11v-1.65h2.79v1.65c0 .61.5 1.11 1.11 1.11h9.87c.61 0 1.11-.5 1.11-1.11v-1.65h2.79v1.65c0 .61.5 1.11 1.11 1.11h.91c1.04 0 1.88-.84 1.88-1.88Z"/><path fill="#635994" d="M25.75 22.56v-2.3l-14.91-.1c-.21 0-.39-.12-.48-.31l-.51-1.09a2.151 2.151 0 0 0-1.94-1.24h-3.4v6.54c0 .29.24.53.53.53h4.75c.29 0 .53-.24.53-.53v-.99c0-.29.23-.52.52-.52H14c.29 0 .52.23.52.52v.99c0 .29.24.53.53.53h10.19c.29 0 .53-.24.53-.53l-.02-1.5Z"/><path fill="#636363" d="M10.54 7a.5.5 0 0 0 0 1h3.77a.5.5 0 1 0 0-1h-3.77Zm0 3a.5.5 0 0 0 0 1h3.77a.5.5 0 1 0 0-1h-3.77Z"/></svg>
